X: 26538
T: Michael's Lament
R: slide
M: 12/8
K: Emajor
BefB|g12|-g4ef g2b2ed|c12-|c8 e'2d'2|
b12-|b4ef g2b2ed|c12-|c8 BefB|
g12-|g4ef g2b2ed|c12-|c8 e'2d'2|
b12-|b6 c'2b3a|{a}b12-|b6 zefgeb|
g3-g2 b4 b2e-|e6 zefgeb|g3-g2 b4 b2e'-|e'8 e'2 d'2|
b8 c'3b|{e}f2ae2=d {B}c2eB2A|GABE3- E6-|E8|

